img/speed.svg

<?xml version="1.0" encoding="UTF-8"?>
<svg width="170px" height="170px" viewBox="0 0 170 170" version="1.1" xmlns="http://www.w3.org/2000/svg" xmlns:xlink="http://www.w3.org/1999/xlink">
    <!-- Generator: Sketch 49.3 (51167) - http://www.bohemiancoding.com/sketch -->
    <title>speed_icon</title>
    <desc>Created with Sketch.</desc>
    <defs></defs>
    <g id="speed_icon" stroke="none" stroke-width="1" fill="none" fill-rule="evenodd">
        <g transform="translate(4.000000, 7.000000)">
            <g id="Vector" transform="translate(0.000000, 17.000000)">
                <path d="M122.9,77.7004 C133.5,77.7004 142,69.1004 142,58.6004 C142,48.1004 133.4,39.5004 122.9,39.5004 C120.9,39.5004 119,39.8004 117.2,40.4004 C117.2,40.0004 117.2,39.5004 117.2,39.1004 C117.2,17.7004 99.9,0.400399619 78.5,0.400399619 C62.3,0.400399619 48.4,10.4004 42.7,24.6004 C38.5,22.2004 33.7,20.8004 28.5,20.8004 C12.8,20.7004 0,33.5004 0,49.2004 C0,64.9004 12.8,77.7004 28.5,77.7004 L122.9,77.7004 Z" id="Shape" fill="#FFFFFF" fill-rule="nonzero"></path>
                <path d="M122.9,77.7004 C133.5,77.7004 142,69.1004 142,58.6004 C142,48.1004 133.4,39.5004 122.9,39.5004 C120.9,39.5004 119,39.8004 117.2,40.4004 C117.2,40.0004 117.2,39.5004 117.2,39.1004 C117.2,17.7004 99.9,0.400399619 78.5,0.400399619 C62.3,0.400399619 48.4,10.4004 42.7,24.6004 C38.5,22.2004 33.7,20.8004 28.5,20.8004 C12.8,20.7004 0,33.5004 0,49.2004 C0,64.9004 12.8,77.7004 28.5,77.7004 L122.9,77.7004 Z" id="Shape" stroke="#0072FF" stroke-width="2"></path>
            </g>
            <g id="Vector_2" transform="translate(71.000000, 131.000000)">
                <path d="M16.6,10.2 C16.6,17.9 8.4,24.1 8.4,24.1 C8.4,24.1 0.199996948,17.9 0.199996948,10.2 C0.199996948,2.5 3.9,0.899993896 8.4,0.899993896 C13,0.899993896 16.6,2.5 16.6,10.2 Z" id="Shape" fill="#FFFFFF" fill-rule="nonzero"></path>
                <path d="M16.6,10.2 C16.6,17.9 8.4,24.1 8.4,24.1 C8.4,24.1 0.199996948,17.9 0.199996948,10.2 C0.199996948,2.5 3.9,0.899993896 8.4,0.899993896 C13,0.899993896 16.6,2.5 16.6,10.2 Z" id="Shape" stroke="#0072FF" stroke-width="2"></path>
            </g>
            <g id="Vector_3" transform="translate(51.000000, 129.000000)">
                <path d="M11.3,6.3 C11.3,11.1 5.8,15 5.8,15 C5.8,15 0.299999237,11.1 0.299999237,6.3 C0.299999237,1.5 2.8,0.5 5.8,0.5 C8.8,0.5 11.3,1.5 11.3,6.3 Z" id="Shape" fill="#FFFFFF" fill-rule="nonzero"></path>
                <path d="M11.3,6.3 C11.3,11.1 5.8,15 5.8,15 C5.8,15 0.299999237,11.1 0.299999237,6.3 C0.299999237,1.5 2.8,0.5 5.8,0.5 C8.8,0.5 11.3,1.5 11.3,6.3 Z" id="Shape" stroke="#0072FF" stroke-width="2"></path>
            </g>
            <g id="Vector_4" transform="translate(97.000000, 129.000000)">
                <path d="M11.3,6.3 C11.3,11.1 5.8,15 5.8,15 C5.8,15 0.300003052,11.1 0.300003052,6.3 C0.300003052,1.5 2.8,0.5 5.8,0.5 C8.8,0.5 11.3,1.5 11.3,6.3 Z" id="Shape" fill="#FFFFFF" fill-rule="nonzero"></path>
                <path d="M11.3,6.3 C11.3,11.1 5.8,15 5.8,15 C5.8,15 0.300003052,11.1 0.300003052,6.3 C0.300003052,1.5 2.8,0.5 5.8,0.5 C8.8,0.5 11.3,1.5 11.3,6.3 Z" id="Shape" stroke="#0072FF" stroke-width="2"></path>
            </g>
            <g id="Vector_5" transform="translate(69.000000, 115.000000)">
                <polygon id="Shape" fill="#FFFFFF" fill-rule="nonzero" points="10.5 0 20.1 12.4 0.699996948 12.4"></polygon>
                <polygon id="Shape" stroke="#92A4BA" stroke-width="2" stroke-linejoin="round" points="10.5 0 20.1 12.4 0.699996948 12.4"></polygon>
            </g>
            <g id="Vector_6" transform="translate(50.000000, 115.000000)">
                <polygon id="Shape" fill="#FFFFFF" fill-rule="nonzero" points="6.9 0.698996948 13.2 9.999 0.299999237 9.999"></polygon>
                <polygon id="Shape" stroke="#92A4BA" stroke-width="2" stroke-linejoin="round" points="6.9 0.698996948 13.2 9.999 0.299999237 9.999"></polygon>
            </g>
            <g id="Vector_7" transform="translate(96.000000, 115.000000)">
                <polygon id="Shape" fill="#FFFFFF" fill-rule="nonzero" points="7 0.698996948 13.4 9.999 0.400001526 9.999"></polygon>
                <polygon id="Shape" stroke="#92A4BA" stroke-width="2" stroke-linejoin="round" points="7 0.698996948 13.4 9.999 0.400001526 9.999"></polygon>
            </g>
            <g id="Vector_8" transform="translate(65.000000, 0.000000)">
                <path d="M14.7,0 C10.6,0 0.800003052,20.5 0.800003052,33.9 L0.800003052,119.7 L28.7,119.7 L28.7,33.9 C28.6,20 18.6,0 14.7,0 Z" id="Shape" fill="#FFFFFF" fill-rule="nonzero"></path>
                <path d="M14.7,0 C10.6,0 0.800003052,20.5 0.800003052,33.9 L0.800003052,119.7 L28.7,119.7 L28.7,33.9 C28.6,20 18.6,0 14.7,0 Z" id="Shape" stroke="#92A4BA" stroke-width="2"></path>
            </g>
            <g id="Vector_9" transform="translate(93.000000, 40.000000)">
                <path d="M9.8,0.800799237 C7.1,0.800799237 0.599998474,14.3008 0.599998474,23.2008 L0.599998474,79.7008 L19,79.7008 L19,23.2008 C19,14.0008 12.4,0.800799237 9.8,0.800799237 Z" id="Shape" fill="#FFFFFF" fill-rule="nonzero"></path>
                <path d="M9.8,0.800799237 C7.1,0.800799237 0.599998474,14.3008 0.599998474,23.2008 L0.599998474,79.7008 L19,79.7008 L19,23.2008 C19,14.0008 12.4,0.800799237 9.8,0.800799237 Z" id="Shape" stroke="#92A4BA" stroke-width="2"></path>
            </g>
            <g id="Vector_10" transform="translate(47.000000, 40.000000)">
                <path d="M9.6,0.800799237 C6.9,0.800799237 0.400001526,14.3008 0.400001526,23.2008 L0.400001526,79.7008 L18.8,79.7008 L18.8,23.2008 C18.7,14.0008 12.2,0.800799237 9.6,0.800799237 Z" id="Shape" fill="#FFFFFF" fill-rule="nonzero"></path>
                <path d="M9.6,0.800799237 C6.9,0.800799237 0.400001526,14.3008 0.400001526,23.2008 L0.400001526,79.7008 L18.8,79.7008 L18.8,23.2008 C18.7,14.0008 12.2,0.800799237 9.6,0.800799237 Z" id="Shape" stroke="#92A4BA" stroke-width="2"></path>
            </g>
            <g id="Vector_11" transform="translate(79.000000, 86.000000)">
                <path d="M11.6,44.9992 C5.5,44.9992 0.5,39.9992 0.5,33.8992 C0.5,27.7992 5.5,22.7992 11.6,22.7992 C12.8,22.7992 13.9,22.9992 14.9,23.2992 C14.9,23.0992 14.9,22.7992 14.9,22.5992 C14.9,10.1992 24.9,0.199196948 37.3,0.199196948 C46.7,0.199196948 54.8,5.9992 58.1,14.1992 C60.5,12.7992 63.3,11.9992 66.3,11.9992 C75.4,11.9992 82.8,19.3992 82.8,28.4992 C82.8,37.5992 75.4,44.9992 66.3,44.9992 L11.6,44.9992 Z" id="Shape" fill="#FFFFFF" fill-rule="nonzero"></path>
                <path d="M11.6,44.9992 C5.5,44.9992 0.5,39.9992 0.5,33.8992 C0.5,27.7992 5.5,22.7992 11.6,22.7992 C12.8,22.7992 13.9,22.9992 14.9,23.2992 C14.9,23.0992 14.9,22.7992 14.9,22.5992 C14.9,10.1992 24.9,0.199196948 37.3,0.199196948 C46.7,0.199196948 54.8,5.9992 58.1,14.1992 C60.5,12.7992 63.3,11.9992 66.3,11.9992 C75.4,11.9992 82.8,19.3992 82.8,28.4992 C82.8,37.5992 75.4,44.9992 66.3,44.9992 L11.6,44.9992 Z" id="Shape" stroke="#0072FF" stroke-width="2"></path>
            </g>
            <g id="Vector_12" transform="translate(65.000000, 43.000000)" stroke="#92A4BA">
                <path d="M0.599998474,7.4008 L0.599998474,7.1008 C0.599998474,3.6008 3.4,0.800799237 6.9,0.800799237 L21.6,0.800799237 C25.1,0.800799237 27.9,3.6008 27.9,7.1008" id="Shape"></path>
            </g>
            <g id="Vector_13" transform="translate(47.000000, 69.000000)" stroke="#92A4BA">
                <path d="M0.299999237,5.0992 L0.299999237,4.8992 C0.299999237,2.5992 2.2,0.699196948 4.5,0.699196948 L14.2,0.699196948 C16.5,0.699196948 18.4,2.5992 18.4,4.8992" id="Shape"></path>
            </g>
            <g id="Vector_14" transform="translate(93.000000, 69.000000)" stroke="#92A4BA">
                <path d="M0.599998474,5.0992 L0.599998474,4.8992 C0.599998474,2.5992 2.5,0.699196948 4.8,0.699196948 L14.5,0.699196948 C16.8,0.699196948 18.7,2.5992 18.7,4.8992" id="Shape"></path>
            </g>
            <g id="Vector_15" transform="translate(37.000000, 99.000000)" stroke="#92A4BA" stroke-width="2">
                <polyline id="Shape" points="10.1 0.599998474 0.400001526 10.3 0.400001526 16.6 10.6 16.6"></polyline>
            </g>
        </g>
    </g>
</svg>

<?xml version="1.0" encoding="UTF-8" standalone="no"?>
<svg
   xmlns:dc="http://purl.org/dc/elements/1.1/"
   xmlns:cc="http://creativecommons.org/ns#"
   xmlns:rdf="http://www.w3.org/1999/02/22-rdf-syntax-ns#"
   xmlns:svg="http://www.w3.org/2000/svg"
   xmlns="http://www.w3.org/2000/svg"
   xmlns:sodipodi="http://sodipodi.sourceforge.net/DTD/sodipodi-0.dtd"
   xmlns:inkscape="http://www.inkscape.org/namespaces/inkscape"
   width="170px"
   height="170px"
   viewBox="0 0 170 170"
   version="1.1"
   id="svg3893"
   sodipodi:docname="speed.svg"
   inkscape:version="0.92.2 5c3e80d, 2017-08-06">
  <metadata
     id="metadata3897">
    <rdf:RDF>
      <cc:Work
         rdf:about="">
        <dc:format>image/svg+xml</dc:format>
        <dc:type
           rdf:resource="http://purl.org/dc/dcmitype/StillImage" />
        <dc:title>speed_icon</dc:title>
      </cc:Work>
    </rdf:RDF>
  </metadata>
  <sodipodi:namedview
     pagecolor="#ffffff"
     bordercolor="#666666"
     borderopacity="1"
     objecttolerance="10"
     gridtolerance="10"
     guidetolerance="10"
     inkscape:pageopacity="0"
     inkscape:pageshadow="2"
     inkscape:window-width="1680"
     inkscape:window-height="957"
     id="namedview3895"
     showgrid="false"
     inkscape:zoom="4.3764706"
     inkscape:cx="59.180108"
     inkscape:cy="85"
     inkscape:window-x="0"
     inkscape:window-y="1"
     inkscape:window-maximized="1"
     inkscape:current-layer="svg3893" />
  <!-- Generator: Sketch 49.3 (51167) - http://www.bohemiancoding.com/sketch -->
  <title
     id="title3818">speed_icon</title>
  <desc
     id="desc3820">Created with Sketch.</desc>
  <defs
     id="defs3822" />
  <g
     id="speed_icon"
     transform="translate(-0.68548387,-1.827957)"
     style="fill:none;fill-rule:evenodd;stroke:none;stroke-width:1">
    <g
       transform="translate(4,7)"
       id="g3890">
      <g
         id="Vector"
         transform="translate(0,17)">
        <path
           d="m 122.9,77.7004 c 10.6,0 19.1,-8.6 19.1,-19.1 0,-10.5 -8.6,-19.1 -19.1,-19.1 -2,0 -3.9,0.3 -5.7,0.9 0,-0.4 0,-0.9 0,-1.3 0,-21.4 -17.3,-38.70000038 -38.7,-38.70000038 -16.2,0 -30.1,10.00000038 -35.8,24.20000038 -4.2,-2.4 -9,-3.8 -14.2,-3.8 -15.7,-0.1 -28.5,12.7 -28.5,28.4 0,15.7 12.8,28.5 28.5,28.5 z"
           id="Shape"
           inkscape:connector-curvature="0"
           style="fill:#ffffff;fill-rule:nonzero" />
        <path
           d="m 122.9,77.7004 c 10.6,0 19.1,-8.6 19.1,-19.1 0,-10.5 -8.6,-19.1 -19.1,-19.1 -2,0 -3.9,0.3 -5.7,0.9 0,-0.4 0,-0.9 0,-1.3 0,-21.4 -17.3,-38.70000038 -38.7,-38.70000038 -16.2,0 -30.1,10.00000038 -35.8,24.20000038 -4.2,-2.4 -9,-3.8 -14.2,-3.8 -15.7,-0.1 -28.5,12.7 -28.5,28.4 0,15.7 12.8,28.5 28.5,28.5 z"
           id="path3825"
           inkscape:connector-curvature="0"
           style="stroke:#0072ff;stroke-width:2" />
      </g>
      <g
         id="Vector_2"
         transform="translate(71,131)">
        <path
           d="m 16.6,10.2 c 0,7.7 -8.2,13.9 -8.2,13.9 0,0 -8.20000305,-6.2 -8.20000305,-13.9 C 0.19999695,2.5 3.9,0.8999939 8.4,0.8999939 13,0.8999939 16.6,2.5 16.6,10.2 Z"
           id="path3828"
           inkscape:connector-curvature="0"
           style="fill:#ffffff;fill-rule:nonzero" />
        <path
           d="m 16.6,10.2 c 0,7.7 -8.2,13.9 -8.2,13.9 0,0 -8.20000305,-6.2 -8.20000305,-13.9 C 0.19999695,2.5 3.9,0.8999939 8.4,0.8999939 13,0.8999939 16.6,2.5 16.6,10.2 Z"
           id="path3830"
           inkscape:connector-curvature="0"
           style="stroke:#0072ff;stroke-width:2" />
      </g>
      <g
         id="Vector_3"
         transform="translate(51,129)">
        <path
           d="M 11.3,6.3 C 11.3,11.1 5.8,15 5.8,15 5.8,15 0.29999924,11.1 0.29999924,6.3 0.29999924,1.5 2.8,0.5 5.8,0.5 c 3,0 5.5,1 5.5,5.8 z"
           id="path3833"
           inkscape:connector-curvature="0"
           style="fill:#ffffff;fill-rule:nonzero" />
        <path
           d="M 11.3,6.3 C 11.3,11.1 5.8,15 5.8,15 5.8,15 0.29999924,11.1 0.29999924,6.3 0.29999924,1.5 2.8,0.5 5.8,0.5 c 3,0 5.5,1 5.5,5.8 z"
           id="path3835"
           inkscape:connector-curvature="0"
           style="stroke:#0072ff;stroke-width:2" />
      </g>
      <g
         id="Vector_4"
         transform="translate(97,129)">
        <path
           d="M 11.3,6.3 C 11.3,11.1 5.8,15 5.8,15 5.8,15 0.30000305,11.1 0.30000305,6.3 0.30000305,1.5 2.8,0.5 5.8,0.5 c 3,0 5.5,1 5.5,5.8 z"
           id="path3838"
           inkscape:connector-curvature="0"
           style="fill:#ffffff;fill-rule:nonzero" />
        <path
           d="M 11.3,6.3 C 11.3,11.1 5.8,15 5.8,15 5.8,15 0.30000305,11.1 0.30000305,6.3 0.30000305,1.5 2.8,0.5 5.8,0.5 c 3,0 5.5,1 5.5,5.8 z"
           id="path3840"
           inkscape:connector-curvature="0"
           style="stroke:#0072ff;stroke-width:2" />
      </g>
      <g
         id="Vector_5"
         transform="translate(69,115)">
        <polygon
           id="polygon3843"
           points="20.1,12.4 0.69999695,12.4 10.5,0 "
           style="fill:#ffffff;fill-rule:nonzero" />
        <polygon
           id="polygon3845"
           points="20.1,12.4 0.69999695,12.4 10.5,0 "
           style="stroke:#92a4ba;stroke-width:2;stroke-linejoin:round" />
      </g>
      <g
         id="Vector_6"
         transform="translate(50,115)">
        <polygon
           id="polygon3848"
           points="13.2,9.999 0.29999924,9.999 6.9,0.69899695 "
           style="fill:#ffffff;fill-rule:nonzero" />
        <polygon
           id="polygon3850"
           points="13.2,9.999 0.29999924,9.999 6.9,0.69899695 "
           style="stroke:#92a4ba;stroke-width:2;stroke-linejoin:round" />
      </g>
      <g
         id="Vector_7"
         transform="translate(96,115)">
        <polygon
           id="polygon3853"
           points="13.4,9.999 0.40000153,9.999 7,0.69899695 "
           style="fill:#ffffff;fill-rule:nonzero" />
        <polygon
           id="polygon3855"
           points="13.4,9.999 0.40000153,9.999 7,0.69899695 "
           style="stroke:#92a4ba;stroke-width:2;stroke-linejoin:round" />
      </g>
      <g
         id="Vector_8"
         transform="translate(65)">
        <path
           d="M 14.7,0 C 10.6,0 0.80000305,20.5 0.80000305,33.9 v 85.8 H 28.7 V 33.9 C 28.6,20 18.6,0 14.7,0 Z"
           id="path3858"
           inkscape:connector-curvature="0"
           style="fill:#ffffff;fill-rule:nonzero" />
        <path
           d="M 14.7,0 C 10.6,0 0.80000305,20.5 0.80000305,33.9 v 85.8 H 28.7 V 33.9 C 28.6,20 18.6,0 14.7,0 Z"
           id="path3860"
           inkscape:connector-curvature="0"
           style="stroke:#92a4ba;stroke-width:2" />
      </g>
      <g
         id="Vector_9"
         transform="translate(93,40)">
        <path
           d="M 9.8,0.80079924 C 7.1,0.80079924 0.59999847,14.3008 0.59999847,23.2008 v 56.5 H 19 v -56.5 C 19,14.0008 12.4,0.80079924 9.8,0.80079924 Z"
           id="path3863"
           inkscape:connector-curvature="0"
           style="fill:#ffffff;fill-rule:nonzero" />
        <path
           d="M 9.8,0.80079924 C 7.1,0.80079924 0.59999847,14.3008 0.59999847,23.2008 v 56.5 H 19 v -56.5 C 19,14.0008 12.4,0.80079924 9.8,0.80079924 Z"
           id="path3865"
           inkscape:connector-curvature="0"
           style="stroke:#92a4ba;stroke-width:2" />
      </g>
      <g
         id="Vector_10"
         transform="translate(47,40)">
        <path
           d="M 9.6,0.80079924 C 6.9,0.80079924 0.40000153,14.3008 0.40000153,23.2008 v 56.5 H 18.8 v -56.5 C 18.7,14.0008 12.2,0.80079924 9.6,0.80079924 Z"
           id="path3868"
           inkscape:connector-curvature="0"
           style="fill:#ffffff;fill-rule:nonzero" />
        <path
           d="M 9.6,0.80079924 C 6.9,0.80079924 0.40000153,14.3008 0.40000153,23.2008 v 56.5 H 18.8 v -56.5 C 18.7,14.0008 12.2,0.80079924 9.6,0.80079924 Z"
           id="path3870"
           inkscape:connector-curvature="0"
           style="stroke:#92a4ba;stroke-width:2" />
      </g>
      <g
         id="Vector_11"
         transform="translate(79,86)">
        <path
           d="m 11.6,44.9992 c -6.1,0 -11.1,-5 -11.1,-11.1 0,-6.1 5,-11.1 11.1,-11.1 1.2,0 2.3,0.2 3.3,0.5 0,-0.2 0,-0.5 0,-0.7 0,-12.4 10,-22.40000305 22.4,-22.40000305 9.4,0 17.5,5.80000305 20.8,14.00000305 2.4,-1.4 5.2,-2.2 8.2,-2.2 9.1,0 16.5,7.4 16.5,16.5 0,9.1 -7.4,16.5 -16.5,16.5 z"
           id="path3873"
           inkscape:connector-curvature="0"
           style="fill:#ffffff;fill-rule:nonzero" />
        <path
           d="m 11.6,44.9992 c -6.1,0 -11.1,-5 -11.1,-11.1 0,-6.1 5,-11.1 11.1,-11.1 1.2,0 2.3,0.2 3.3,0.5 0,-0.2 0,-0.5 0,-0.7 0,-12.4 10,-22.40000305 22.4,-22.40000305 9.4,0 17.5,5.80000305 20.8,14.00000305 2.4,-1.4 5.2,-2.2 8.2,-2.2 9.1,0 16.5,7.4 16.5,16.5 0,9.1 -7.4,16.5 -16.5,16.5 z"
           id="path3875"
           inkscape:connector-curvature="0"
           style="stroke:#0072ff;stroke-width:2" />
      </g>
      <g
         id="Vector_12"
         transform="translate(65,43)"
         style="stroke:#92a4ba">
        <path
           d="m 0.59999847,7.4008 v -0.3 C 0.59999847,3.6008 3.4,0.80079924 6.9,0.80079924 h 14.7 c 3.5,0 6.3,2.80000076 6.3,6.30000076"
           id="path3878"
           inkscape:connector-curvature="0" />
      </g>
      <g
         id="Vector_13"
         transform="translate(47,69)"
         style="stroke:#92a4ba">
        <path
           d="m 0.29999924,5.0992 v -0.2 C 0.29999924,2.5992 2.2,0.69919695 4.5,0.69919695 h 9.7 c 2.3,0 4.2,1.90000305 4.2,4.20000305"
           id="path3881"
           inkscape:connector-curvature="0" />
      </g>
      <g
         id="Vector_14"
         transform="translate(93,69)"
         style="stroke:#92a4ba">
        <path
           d="m 0.59999847,5.0992 v -0.2 C 0.59999847,2.5992 2.5,0.69919695 4.8,0.69919695 h 9.7 c 2.3,0 4.2,1.90000305 4.2,4.20000305"
           id="path3884"
           inkscape:connector-curvature="0" />
      </g>
      <g
         id="Vector_15"
         transform="translate(37,99)"
         style="stroke:#92a4ba;stroke-width:2" />
    </g>
  </g>
</svg>
